X:1
T:Hora Lautareasca
R:hora
O:Romania
Z:id:hn-hora-1
M:C|
L:1/8
Q:1/2=120
K:Bphr ^d =c
B^df |: "B"b^a^c'b "B/F#"bac'b | "B"b^a^c'^a "B/F#"b3^g |
   "Am-5"=a^gba "Am-5/D#"agba | "Am-5"a^gbg "Am-5/D#"a2B2 |
   "Em"z^def "Em/B"=ge^ab | "Em"^c'2b^a "Em/B"gefg |
   [1 "A#dim"=a2gf "A#dim/E"e^deg | "B"f3B "B/F#"^dfa2 :|
   [2 "A#dim"=a2gf "A#dim/E"efe^d | "B"^dB=cA "B/F#"B3e ||
|: "B"^defg "B/F#"afg2 | "B"e^deg "B/F#"fffB |
   "Em/G"ggg2 "B7/F#"fffB | "Em/G"ggg2 "B7/F#"fffe |
   "B"^defg "B/F#"afg2 | "B"e^deg "B/F#"fffB |
   "Am-5"g2fg "Am-5/D#"efe^d |1 "B"^dB=cA "B/F#"B3e :|2 "B"^dB=cA "B/F#"B3B ||
|: "Am-5"B=cAB "Am-5/D#"cABc | "Am-5"^dB=cd "Am-5/D#"edcB |
   "Am-5"AB=c^d "Am-5/D#"efe^d |1 "B"^dB=cA "B/F#"Bdf2 |
   "Am-5"B=cAB "Am-5/D#"cABc | "Am-5"^dB=cd "Am-5/D#"e3a |
   "Am-5"aggf "Am-5/D#"efe^d | "B"^dB=cA "B/F#"B3B :|2 "B"^dB=cA "B/F#"B3g |
   "Am-5"a^gba "Am-5/D#"a=ggf | "Am-5"fee^d "Am-5/D#"d=ccB | 
   "Am-5"AB=c^d "Am-5/D#"efed | "B"^dB=cA "B/F#"B ||

